X:411
T: "Das treue Maedchen"
N: Z1091
O: Europa, Mitteleuropa, Deutschland, Niederrhein
R: Romanze, Ballade, Tod
M: 4/4
L: 1/16
K: A
=G4 | =c4c2c2c6A2 | =G3GG3GG6
E2 | A6B2=c4B2A2 | B4E4z4
=G4 | =c4=G2G2c6e2 | d3=cB3Ad6
e2 | e6B2=c6A2 | G4B4z4
B4 | =c4c2B2c6e2 | d3=cB3Ad6
e2 | e6B2=c6A2 | E4A4z4

